assets/img/braze_icons/phone-hang-up.svg

<svg fill="none" height="24" viewBox="0 0 24 24" width="24" xmlns="http://www.w3.org/2000/svg"><g fill="#801ed7"><path d="m21.7071 3.70711c.3905-.39053.3905-1.02369 0-1.41422-.3905-.39052-1.0237-.39052-1.4142 0l-18.00001 18.00001c-.39052.3905-.39052 1.0237 0 1.4142.39053.3905 1.02369.3905 1.41422 0l4.3085-4.3085c2.30909 2.102 5.08789 3.6428 8.09659 4.4979.5191.1475.9215.2619 1.4734.2636.6308.0018 1.421-.2037 1.971-.5126.9594-.5389 2.1615-1.6794 2.6562-2.6574.4306-.8513.4306-1.8567 0-2.7081-.4227-.8356-1.4011-1.7942-2.1839-2.3031-.9943-.6465-2.2762-.6465-3.2705 0-.2664.1732-.513.4202-.7991.7068-.0132.0132-.0256.0264-.0376.0392-.0728.0776-.132.1406-.2518.0831-1.0814-.5192-2.1089-1.1897-3.0513-2.0124z"/><path d="m10.0122 9.74516c-.26977-.43067-.51307-.87302-.72995-1.32475-.05691-.11851.01055-.18264.08794-.25622.01135-.01079.02291-.02178.03432-.03317.28666-.28617.53359-.53268.70679-.79913.6465-.99434.6465-2.27621 0-3.27055-.50888-.78274-1.46744-1.76115-2.3031-2.18382-.85134-.43061-1.85674-.43061-2.70808 0-.98533.49837-2.12609 1.71043-2.65737 2.6562-.30893.54994-.51444 1.34018-.51256 1.97095.00164.5519.11603.95437.26354 1.47338.65952 2.32035 1.72675 4.50395 3.14475 6.44085z"/></g></svg>

<svg width="24" height="24" viewBox="0 0 24 24" fill="none" xmlns="http://www.w3.org/2000/svg">
<path d="M21.7071 3.70711C22.0976 3.31658 22.0976 2.68342 21.7071 2.29289C21.3166 1.90237 20.6834 1.90237 20.2929 2.29289L2.29289 20.2929C1.90237 20.6834 1.90237 21.3166 2.29289 21.7071C2.68342 22.0976 3.31658 22.0976 3.70711 21.7071L8.01561 17.3986C10.3247 19.5006 13.1035 21.0414 16.1122 21.8965C16.6313 22.044 17.0337 22.1584 17.5856 22.1601C18.2164 22.1619 19.0066 21.9564 19.5566 21.6475C20.516 21.1086 21.7181 19.9681 22.2128 18.9901C22.6434 18.1388 22.6434 17.1334 22.2128 16.282C21.7901 15.4464 20.8117 14.4878 20.0289 13.9789C19.0346 13.3324 17.7527 13.3324 16.7584 13.9789C16.492 14.1521 16.2454 14.3991 15.9593 14.6857C15.9461 14.6989 15.9337 14.7121 15.9217 14.7249C15.8489 14.8025 15.7897 14.8655 15.6699 14.808C14.5885 14.2888 13.561 13.6183 12.6186 12.7956L21.7071 3.70711Z" fill="#801ED7"/>
<path d="M10.0122 9.74516C9.74243 9.31449 9.49913 8.87214 9.28225 8.42041C9.22534 8.3019 9.2928 8.23777 9.37019 8.16419C9.38154 8.1534 9.3931 8.14241 9.40451 8.13102C9.69117 7.84485 9.9381 7.59834 10.1113 7.33189C10.7578 6.33755 10.7578 5.05568 10.1113 4.06134C9.60242 3.2786 8.64386 2.30019 7.8082 1.87752C6.95686 1.44691 5.95146 1.44691 5.10012 1.87752C4.11479 2.37589 2.97403 3.58795 2.44275 4.53372C2.13382 5.08366 1.92831 5.8739 1.93019 6.50467C1.93183 7.05657 2.04622 7.45904 2.19373 7.97805C2.85325 10.2984 3.92048 12.482 5.33848 14.4189L10.0122 9.74516Z" fill="#801ED7"/>
</svg>
